src/assets/filled/HomeTrendDown.svg

<svg width="24" height="24" viewBox="0 0 24 24"  xmlns="http://www.w3.org/2000/svg">
<path d="M20.04 6.81969L14.28 2.78969C12.71 1.68969 10.3 1.74969 8.78999 2.91969L3.77999 6.82969C2.77999 7.60969 1.98999 9.20969 1.98999 10.4697V17.3697C1.98999 19.9197 4.05999 21.9997 6.60999 21.9997H17.39C19.94 21.9997 22.01 19.9297 22.01 17.3797V10.5997C22.01 9.24969 21.14 7.58969 20.04 6.81969ZM16.88 16.1897C16.88 16.2797 16.86 16.3697 16.83 16.4597C16.76 16.6297 16.62 16.7697 16.45 16.8397C16.36 16.8797 16.27 16.8897 16.18 16.8897H14.32C13.93 16.8897 13.62 16.5797 13.62 16.1897C13.62 15.7997 13.93 15.4897 14.32 15.4897H14.5L12.39 13.3797L11.37 14.8997C11.25 15.0697 11.07 15.1897 10.86 15.2097C10.64 15.2297 10.45 15.1597 10.3 15.0097L7.31999 12.0297C7.04999 11.7597 7.04999 11.3197 7.31999 11.0397C7.58999 10.7597 8.02999 10.7697 8.30999 11.0397L10.69 13.4197L11.71 11.8997C11.83 11.7297 12.01 11.6097 12.22 11.5897C12.44 11.5697 12.63 11.6397 12.78 11.7897L15.5 14.5097V14.3297C15.5 13.9397 15.81 13.6297 16.2 13.6297C16.59 13.6297 16.9 13.9397 16.9 14.3297V16.1897H16.88Z" />
</svg>

<?xml version="1.0" encoding="UTF-8"?>
<svg width="24" height="24" viewBox="0 0 24 24" xmlns="http://www.w3.org/2000/svg">
 <path d="m20.04 6.8197-5.76-4.03c-1.57-1.1-3.98-1.04-5.49 0.13l-5.01 3.91c-1 0.78-1.79 2.38-1.79 3.64v6.9c0 2.55 2.07 4.63 4.62 4.63h10.78c2.55 0 4.62-2.07 4.62-4.62v-6.78c0-1.35-0.87-3.01-1.97-3.78zm-3.16 9.37c0 0.09-0.02 0.18-0.05 0.27-0.07 0.17-0.21 0.31-0.38 0.38-0.09 0.04-0.18 0.05-0.27 0.05h-1.86c-0.39 0-0.7-0.31-0.7-0.7s0.31-0.7 0.7-0.7h0.18l-2.11-2.11-1.02 1.52c-0.12 0.17-0.3 0.29-0.51 0.31-0.22 0.02-0.41-0.05-0.56-0.2l-2.98-2.98c-0.27-0.27-0.27-0.71 0-0.99s0.71-0.27 0.99 0l2.38 2.38 1.02-1.52c0.12-0.17 0.3-0.29 0.51-0.31 0.22-0.02 0.41 0.05 0.56 0.2l2.72 2.72v-0.18c0-0.39 0.31-0.7 0.7-0.7s0.7 0.31 0.7 0.7v1.86h-0.02z"/>
</svg>
